X:1
T:Title
%%score { ( 1 3 ) | ( 2 4 ) }
L:1/8
Q:1/4=108
M:12/8
K:G
V:1 treble nm="Grand Piano"
V:3 treble 
V:2 bass 
V:4 bass 
V:1
 [B,D]3 [B,G]3 G3 B3 | AAA AGA B3 [G,B,G]3 | [G,CE]3 [G,EG]3 [G,D]3 [B,DG]3 | BAG dcB [FA]6 | %4
w: W.~J.~Kirkpatrick * * *||||
 B3 d3 d3 G3 | [EA][EA][EA] [EA][EA][EB] [Ec]3 [EA]3 | [DG]3 [B,D]3 [Gd]3 [GB]3 | %7
w: |||
[M:9/8] [FA][GB][Ac] [GB]2 [CDA] [G,B,DG]3 |[M:3/8] B2 c |[M:6/4] .d12 | d12 | .c12 | B12 | .d12 | %14
w: |||||||
 e12 | .d12 | G12 |] %17
w: |||
V:2
 [G,,G,]3 [G,,D,]3 [G,B,D]3 [G,D]3 | [D,F,D][D,F,D][D,F,D] [D,F,D][D,E,D][D,F,D] [G,D]3 G,,3 | %2
 C,3 C,3 B,,3 G,,3 | [G,DG][G,CD][G,B,D] [G,B,D][G,A,D][K:bass][G,D] [D,D]6 | %4
 [G,DG]3 [G,B,G]3 [G,B,G]3[K:bass] [G,B,D]3 | %5
 [C,C][C,C][C,C] [C,A,][C,A,][B,,^G,] [A,,A,]3 [C,A,]3 | [D,B,]3 [D,G,]3 [D,B,]3 [D,D]3 | %7
[M:9/8] [D,D][D,D][D,D] [D,D]2 D, G,,3 |[M:3/8][K:treble] G2 A |[M:6/4] .B12 | B12 | %11
 .A12[K:bass][K:treble] | G12 | .B12 | G12[K:bass][K:treble] | .B12[K:bass] | %16
 [G,B,]3 [G,C]3 [G,B,]6 |] %17
V:3
 x12 | x12 | x12 | x12 | x12 | x12 | x12 |[M:9/8] x9 |[M:3/8] x3 |[M:6/4] z2 z D2 D D2 c B2 c | %10
 z2 D D2 D D3 e2 d | z2 z D2 D D2 c d2 c | z2 D D2 D D3 B2 c | z2 z D2 D D2 B A2 G | %14
 z2 C C2 C C3 cde | z2 z G,2 B, D2 [DGB] [Fc]2 [FA] | z2 z E2 E D6 |] %17
V:4
 x12 | x12 | x12 | x5[K:bass] x7 | x9[K:bass] x3 | x12 | x12 |[M:9/8] x9 |[M:3/8][K:treble] x3 | %9
[M:6/4] z2 z G,2 G, G,2 A G2 A | z2 G, G,2 G, G,3 c2 B | z2 z[K:bass] D,2 D, D,2[K:treble] A B2 A | %12
 z2 G, G,2 G, G,3 G2 A | z2 z G,2 G, G,2 G .F3 | z2[K:bass] C, C,2 C, C,3[K:treble] ABc | %15
 z2 z[K:bass] D,2 D, D,2 D, [D,A,]2 [D,C] | x12 |] %17

